resources/svg/google-o.svg

<svg width="15" height="15" viewBox="0 0 15 15" fill="none" xmlns="http://www.w3.org/2000/svg">
<path d="M14.5 7.5H15V7H14.5V7.5ZM7.5 14C3.91015 14 1 11.0899 1 7.5H0C0 11.6421 3.35786 15 7.5 15V14ZM14 7.5C14 11.0899 11.0899 14 7.5 14V15C11.6421 15 15 11.6421 15 7.5H14ZM7.5 0C3.35786 0 0 3.35786 0 7.5H1C1 3.91015 3.91015 1 7.5 1V0ZM7.5 1C9.31889 1 10.9625 1.74643 12.1429 2.95097L12.8571 2.25107C11.4964 0.862501 9.59849 0 7.5 0V1ZM8 8H14.5V7H8V8Z" fill="black"/>
</svg>

<svg viewBox="0 0 15 15" fill="none" xmlns="http://www.w3.org/2000/svg" fill="currentColor"><path d="M14.5 7.5h.5V7h-.5v.5zm-7 6.5A6.5 6.5 0 011 7.5H0A7.5 7.5 0 007.5 15v-1zM14 7.5A6.5 6.5 0 017.5 14v1A7.5 7.5 0 0015 7.5h-1zM7.5 0A7.5 7.5 0 000 7.5h1A6.5 6.5 0 017.5 1V0zm0 1c1.819 0 3.463.746 4.643 1.951l.714-.7A7.479 7.479 0 007.5 0v1zM8 8h6.5V7H8v1z" fill="currentColor"/></svg>
